X:45
T:Marching Through Georgia
C:1865 Henry C. Work
M:2/4
Q:1/4=100
L:1/8
K:D
%%MIDI channel 1
%%MIDI program 72
%%MIDI transpose 8
%%MIDI grace 1/8
%%MIDI ratio 3 1
z2|f>e de|fA AA|B>c de|d4|F>G AA|BA Bd|e>d ef|e4|
Sdd ef|gB BB|Ad de|f3 f|e2 e>e|ee fe|d4|d2!fine!|]z f|
a3 f|a3 f|d>e dB|d3 f|a3 f|a3 f|e>d ef|e4!D.S.!|
%dd ef|gB BB|Ad de|f3 f|e2 e>e|ee fe|d4|d4!D.S.!|
%%%newpage
